X:1015
T:Lochness.
M:C|
L:1/8
Q:1/4=120
Z:Jack Campin * www.campin.me.uk * 2009
K:A Minor
A|A/A/A a2 g>ed>e|c<G```G>E G>AcG    |A/A/A a2   g>ede |d<AB>G A/A/A A:|
B|A>B```cd e>cde |G/G/G G>E c<GG>c   |A>B```cd   e>gd>e|c<AB>G A/A/A AB|
  A>B```cd e>cde |G/G/G G>E cGG (e/g/|a>)(e`g>)d e>cde |c<AB>G A/A/A A|]

